!!!COM: Chopin, Frederic
!!!CDT: 1810///-1849///
!!!OTL: Mazurka in B-flat Minor, Op. 24, No. 4
!!!OPS: Op. 24
!!!ONM: No. 4
!!!OMD: Moderato
!!!ODT: 1833///
!!!PDT: 1836///
!!!PPP: Leipzig, Paris and London
!!!ODE: Count de Perthuis
**kern	**kern	**dynam
*thru	*thru	*thru
*staff2	*staff1	*staff1/2
*Ipiano	*Ipiano	*Ipiano
*>A	*>A	*>A
*clefF4	*clefG2	*clefG2
*k[b-e-a-d-g-]	*k[b-e-a-d-g-]	*k[b-e-a-d-g-]
*b-:	*b-:	*b-:
*M3/4	*M3/4	*M3/4
*MM138	*MM138	*MM138
=54!|:	=54!|:	=54!|:
*>C	*>C	*>C
4r	(4r	.
4.g-\	4.gg-\	.
8d-\	8dd-\	.
=55	=55	=55
8en\L	8een\L	.
8c\J	8cc\J	.
&(4B-\&)	4b-\)	.
4B-\	(4b-\	.
=56	=56	=56
8f\L	8ff\L	.
8a-\J	8aa-\J	.
4g-\	4gg-\	.
8g-\L	8gg-\L	.
8d-\J	8dd-\J	.
=57	=57	=57
8en\L	8een\L	.
8c\J	8cc\J	.
&(2B-\&)	[2b-\)	.
=58	=58	=58
4C^\ 4Gn^\ 4c^\	(4B-/ 4en/ 4b-/]	.
4C\ 4F\ 4c\	4An/) 4f/ 4an/	.
4C\ 4F\ 4c\	(4A/ 4f/ 4a/	.
=59	=59	=59
4C\ 4Gn\ 4c\	8en/ 8cc/L	.
.	8B-/ 8b-/J	.
4C\ 4F\ 4c\	4An/) 4f/ 4an/	.
4C\ 4F\ 4c\	(4A/ 4f/ 4a/	.
=60	=60	=60
4C\ 4Gn\ 4c\	4B-/ 4en/ 4b-/	.
4C\ 4F\ 4c\	4An/) 4f/ 4an/	.
4C\ 4F\ 4c\	(4A/ 4f/ 4a/	.
=61	=61	=61
*>C1	*>C1	*>C1
*	*^	*
4C\ 4Gn\ 4c\	(8an/L	4B-\) 4en\	.
.	8gn/J	.	.
2F\ 2c\	2f/)	2An\	.
*	*v	*v	*
!!!ENC: Craig Stuart Sapp
!!!END: 2005/03/03/
!!!URL: http://www.chopinsociety.org/maz_rf.htm#maz244 (short description by David Dubal)
!!!URL: http://chopin.lib.uchicago.edu/gsdl/cgi-bin/library?e=d-000-00---0chopin--00-0-0-0prompt-10---4---Document-dtt--0-1l--1-en-Zz-1---50-home-mazurka--001-001-0-0utfZz-8-0&a=d&c=chopin&cl=CL3.10.9 (Early editions of op. 24 at the University of Chicago)
